X:1
T:Betty and Dupree
M:12/8
L:1/4
K:C
 E/2 E G A/2 G- E2| c c3/2 d/2 c3/2 A3/2| G4 z2| c/2 c c d/2 c- A2|\
 c c3/2 d/2 c3/2 A3/2| G4 z2| G G3/2 A/2G/2 G3/2 A| c c3/2 d/2 c3/2 A3/2|\
 G4 z2|
